src/images/palomino.inline.svg

<svg xmlns="http://www.w3.org/2000/svg" width="64" height="1028" fill="none" color-interpolation-filters="sRGB">
  <path fill="#364E51" d="M56 128H24v53h32v-53z"/>
  <g class="fill-shadow">
    <path d="M46 138c0-5 2-12 2-24V45c0-1.1-.9-2-2-2V14c0-2.21-1.79-4-4-4H6c-2.21 0-4 1.79-4 4v29c-1.1 0-2 .9-2 2v69c0 12 2 19 2 24v21c-1.1 0-2 .9-2 2s.9 2 2 2v14c-1.1 0-2 .9-2 2s.9 2 2 2v740l29 102 15-102V181c1.1 0 2-.9 2-2s-.9-2-2-2v-14c1.1 0 2-.9 2-2s-.9-2-2-2v-21z" class="opacity-20"/>
    <path d="M58 128c0-5 2-12 2-24V35c0-1.1-.9-2-2-2V4c0-2.21-1.79-4-4-4H18c-2.21 0-4 1.79-4 4v29c-1.1 0-2 .9-2 2v69c0 12 2 19 2 24v21c-1.1 0-2 .9-2 2s.9 2 2 2v14c-1.1 0-2 .9-2 2s.9 2 2 2v747l21 110 23-110V171c1.1 0 2-.9 2-2s-.9-2-2-2v-14c1.1 0 2-.9 2-2s-.9-2-2-2v-21z" class="opacity-40"/>
  </g>
  <path fill="#DDA985" d="M18 918h12l10 6 10-6h12l-22 110-22-110z"/>
  <path fill="#854C39" d="M22.08 918H18l22 110 2.04-10.11L22.08 918z" opacity=".6"/>
  <path fill="#854C39" d="M62 918H50l-10 49-10-49H18l22 110 22-110z" opacity=".2"/>
  <path fill="#564C5C" d="M47.27 992l-7.28 36-7.26-36h14.54z"/>
  <path fill="#272F39" d="M36.81 992h-4.08l7.27 35.98 2.04-10.1L36.81 992z" opacity=".8"/>
  <path fill="#564C5C" d="M32.64 992l7.26 36 .01-.02L32.65 992h-.01z"/>
  <path fill="#272F39" d="M39.91 1027.98v.02l2.04-10.11v-.02l-2.04 10.11z" opacity=".1"/>
  <path fill="#DBD4BF" d="M62 181H18.09L18 918h12l10 6 10-6h11.91L62 181z"/>
  <path fill="#829994" d="M62 918V181H50v737l5 5 7-5z"/>
  <path fill="#628A85" d="M30 181H18v737l7 5 5-5V181z"/>
  <path fill="#F4ECEB" d="M30 918V181h2v738.2l-2-1.2zM48 919.2V181h2v737l-2 1.2z"/>
  <path fill="#D89F31" d="M18 4v29h44V4c0-2.21-1.79-4-4-4H22c-2.21 0-4 1.79-4 4z"/>
  <path fill="#6E5C3C" d="M58 0h-2v33h6V4c0-2.21-1.79-4-4-4z" opacity=".4"/>
  <path fill="#2A3C51" d="M24 128h-6v53h6v-53zM62 128h-6v53h6v-53z"/>
  <path fill="#6E5C3C" d="M24 0h-2c-2.21 0-4 1.79-4 4v29h6V0z" opacity=".4"/>
  <path fill="#2A3C51" d="M62 128H18v2h44v-2z"/>
  <path fill="#334D50" d="M64 104V35c0-1.1-.9-2-2-2h-7.38c-.38 0-.73-.21-.89-.55l-1.45-2.89a1 1 0 00-.89-.55H28.63c-.38 0-.73.21-.89.55l-1.45 2.89a1 1 0 01-.89.55H18c-1.1 0-2 .9-2 2v69c0 12 2 19 2 24v53h44v-53c0-5 2-12 2-24z"/>
  <path fill="#2A3C51" d="M18 128c0-5-2-12-2-24V35c0-1.1.9-2 2-2v95zM62 128c0-5 2-12 2-24V35c0-1.1-.9-2-2-2v95z"/>
  <path fill="#2A3C51" d="M16 104c0 12 2 19 2 24h44c0-5 2-12 2-24 0 26.67-48 26.67-48 0z"/>
  <path fill="#2A3C51" d="M50 181h12v-10c1.1 0 2-.9 2-2s-.9-2-2-2v-14c1.1 0 2-.9 2-2s-.9-2-2-2v-21c0-5 2-12 2-24V37c0-2.21-1.79-4-4-4v62c0 25.39-40 25.39-40 0V33c-2.21 0-4 1.79-4 4v67c0 12 2 19 2 24v21c-1.1 0-2 .9-2 2s.9 2 2 2v14c-1.1 0-2 .9-2 2s.9 2 2 2v10h12v-10h20v10zm-20-51h20v19H30v-19zm0 37v-14h20v14H30z"/>
  <path fill="#8A9792" d="M50 148V66c0-.55.45-1 1-1s1 .45 1 1v82c0 .55-.45 1-1 1s-1-.45-1-1zM49 34H31c-.55 0-1-.45-1-1s.45-1 1-1h18c.55 0 1 .45 1 1s-.45 1-1 1z" opacity=".4"/>
</svg>

<svg width="64" height="1028" viewBox="0 0 64 1028" fill="none" xmlns="http://www.w3.org/2000/svg" color-interpolation-filters="sRGB">
<path d="M56 128H24V181H56V128Z" fill="#364E51"/>
<g class="fill-shadow">
<path d="M46 138C46 133 48 126 48 114V47V45C48 43.9 47.1 43 46 43V14C46 11.79 44.21 10 42 10H6C3.79 10 2 11.79 2 14V43C0.9 43 0 43.9 0 45V114C0 126 2 133 2 138V159C0.9 159 0 159.9 0 161C0 162.1 0.9 163 2 163V177C0.9 177 0 177.9 0 179C0 180.1 0.9 181 2 181V921L31 1023L46 921V181C47.1 181 48 180.1 48 179C48 177.9 47.1 177 46 177V163C47.1 163 48 162.1 48 161C48 159.9 47.1 159 46 159V138Z" class="opacity-20"/>
<path d="M58 128C58 123 60 116 60 104V35C60 33.9 59.1 33 58 33V4C58 1.79 56.21 0 54 0H18C15.79 0 14 1.79 14 4V33C12.9 33 12 33.9 12 35V104C12 116 14 123 14 128V130V149C12.9 149 12 149.9 12 151C12 152.1 12.9 153 14 153V167C12.9 167 12 167.9 12 169C12 170.1 12.9 171 14 171V918L35 1028L58 918V171C59.1 171 60 170.1 60 169C60 167.9 59.1 167 58 167V153C59.1 153 60 152.1 60 151C60 149.9 59.1 149 58 149V130V128Z" class="opacity-40"/>
</g>
<path d="M18 918H30L40 924L50 918H62L40 1028L18 918Z" fill="#D2AE91"/>
<path opacity="0.6" d="M22.08 918H18L40 1028L42.04 1017.89L22.08 918Z" fill="#854C39"/>
<path opacity="0.2" d="M62 918H50L40 967L30 918H18L40 1028L62 918Z" fill="#854C39"/>
<path d="M47.27 992L39.99 1028L32.73 992H47.27Z" fill="#564C5C"/>
<path opacity="0.8" d="M36.81 992H32.73L40 1027.98L42.04 1017.88L36.81 992Z" fill="#272F39"/>
<path d="M32.6401 992L39.9001 1028L39.9101 1027.98L32.6501 992H32.6401Z" fill="#564C5C"/>
<path opacity="0.1" d="M39.9102 1027.98V1028L41.9502 1017.89V1017.87L39.9102 1027.98Z" fill="#272F39"/>
<path d="M62 181H18.09L18 918H30L40 924L50 918H61.91L62 181Z" fill="#DBD4BF"/>
<path d="M62 918V181H50V918L55 923L62 918Z" fill="#829994"/>
<path d="M30 181H18V918L25 923L30 918V181Z" fill="#628A85"/>
<path d="M30 918V181H32V919.2L30 918Z" fill="#F4ECEB"/>
<path d="M48 919.2V181H50V918L48 919.2Z" fill="#F4ECEB"/>
<path d="M18 4V33H62V4C62 1.79 60.21 0 58 0H22C19.79 0 18 1.79 18 4Z" fill="#D89F31"/>
<path opacity="0.4" d="M58 0H56V33H62V4C62 1.79 60.21 0 58 0Z" fill="#6E5C3C"/>
<path d="M24 128H18V181H24V128Z" fill="#2A3C51"/>
<path d="M62 128H56V181H62V128Z" fill="#2A3C51"/>
<path opacity="0.4" d="M24 0H22C19.79 0 18 1.79 18 4V33H24V0Z" fill="#6E5C3C"/>
<path d="M62 128H18V130H62V128Z" fill="#2A3C51"/>
<path d="M64 104V35C64 33.9 63.1 33 62 33H54.62C54.24 33 53.89 32.79 53.73 32.45L52.28 29.56C52.11 29.22 51.76 29.01 51.39 29.01H28.63C28.25 29.01 27.9 29.22 27.74 29.56L26.29 32.45C26.12 32.79 25.77 33 25.4 33H18C16.9 33 16 33.9 16 35V104C16 116 18 123 18 128V181H62V128C62 123 64 116 64 104Z" fill="#364E51"/>
<path d="M18 128C18 123 16 116 16 104V35C16 33.9 16.9 33 18 33V128Z" fill="#2A3C51"/>
<path d="M62 128C62 123 64 116 64 104V35C64 33.9 63.1 33 62 33V128Z" fill="#2A3C51"/>
<path d="M16 104C16 116 18 123 18 128H62C62 123 64 116 64 104C64 130.67 16 130.67 16 104Z" fill="#2A3C51"/>
<path d="M50 181H62V171C63.1 171 64 170.1 64 169C64 167.9 63.1 167 62 167V153C63.1 153 64 152.1 64 151C64 149.9 63.1 149 62 149V130V128C62 123 64 116 64 104V37C64 34.79 62.21 33 60 33V95C60 120.39 20 120.39 20 95V33C17.79 33 16 34.79 16 37V104C16 116 18 123 18 128V130V149C16.9 149 16 149.9 16 151C16 152.1 16.9 153 18 153V167C16.9 167 16 167.9 16 169C16 170.1 16.9 171 18 171V181H30V171H50V181ZM30 130H50V149H30V130ZM30 167V153H50V167H30Z" fill="#2A3C51"/>
<path opacity="0.4" d="M50 148V66C50 65.45 50.45 65 51 65C51.55 65 52 65.45 52 66V148C52 148.55 51.55 149 51 149C50.45 149 50 148.55 50 148Z" fill="#8A9792"/>
<path opacity="0.4" d="M49 34H31C30.45 34 30 33.55 30 33C30 32.45 30.45 32 31 32H49C49.55 32 50 32.45 50 33C50 33.55 49.55 34 49 34Z" fill="#8A9792"/>
</svg>
